<?xml version="1.0" encoding="UTF-8"?>
<map version="1.10" tiledversion="1.11.2" orientation="orthogonal" renderorder="right-down" width="100" height="100" tilewidth="64" tileheight="64" infinite="0" nextlayerid="4" nextobjectid="1">
 <tileset firstgid="1" source="hyptosis_tile-art-batch-1_0x64x64.tsx"/>
 <layer id="2" name="Tile Layer 1" width="100" height="100">
  <data encoding="csv">
574,574,574,574,574,574,574,574,574,545,664,572,855,855,1610613592,855,855,541,573,574,574,574,574,574,574,574,574,574,574,574,664,665,571,541,542,634,664,541,664,663,664,542,634,663,541,664,664,571,572,542,634,571,542,571,542,634,542,663,665,571,664,541,664,541,541,665,663,664,664,571,571,542,541,542,542,663,571,542,542,663,571,665,665,572,572,634,572,542,572,571,572,542,634,664,541,663,663,634,541,541,
574,574,574,574,574,574,574,574,575,663,664,572,855,855,1610613592,855,855,663,573,574,574,574,574,574,574,574,574,574,574,574,571,664,664,665,634,665,665,634,541,541,664,572,665,572,542,665,572,634,571,541,664,665,663,541,664,542,665,634,664,664,665,664,571,541,663,663,571,634,665,663,663,572,665,664,541,542,663,572,664,665,634,541,634,663,664,541,665,541,571,571,663,665,634,572,541,572,634,634,634,634,
574,574,574,574,574,574,574,574,545,571,572,572,828,829,2684355448,855,541,541,573,574,574,574,574,574,574,574,574,574,574,574,542,541,663,664,541,541,664,634,665,541,571,542,571,572,664,665,665,634,664,665,572,663,664,664,541,634,663,665,634,634,571,634,572,541,634,634,664,541,572,664,541,663,572,665,572,571,542,541,665,634,541,541,663,572,572,571,634,634,542,541,665,572,665,663,541,634,665,663,665,541,
574,574,574,574,574,574,574,575,663,663,572,855,858,859,855,855,572,665,573,574,574,574,574,574,574,574,574,574,574,574,663,572,572,571,665,571,665,541,541,571,542,663,634,664,664,634,664,634,664,542,572,664,541,665,664,572,663,572,663,665,665,571,541,571,542,663,572,663,634,571,664,571,572,664,634,542,541,634,665,542,572,541,663,634,542,542,663,571,664,572,542,571,542,571,571,665,541,663,664,541,
574,574,574,574,574,574,574,545,665,572,855,855,855,2684355447,855,855,572,541,573,574,574,574,574,574,574,574,574,574,574,574,663,663,664,634,542,664,665,571,665,542,663,541,665,665,665,665,634,542,664,665,542,663,571,541,665,663,663,542,663,634,542,542,542,542,663,634,665,664,542,572,663,663,572,664,664,571,572,542,542,571,663,634,663,542,663,541,663,541,572,665,542,634,663,541,665,571,541,634,571,542,
574,574,574,574,574,545,605,664,572,855,855,1610613624,887,2684355448,855,572,571,542,573,574,574,574,574,574,574,574,574,574,574,574,541,571,542,634,634,572,571,664,663,634,541,664,572,663,541,542,634,541,663,663,542,665,634,663,634,542,541,541,663,663,542,665,665,542,572,541,665,571,663,542,571,572,541,665,571,665,665,571,571,665,663,634,542,634,634,571,542,541,664,572,572,634,663,665,542,665,634,634,664,665,
574,574,574,574,575,571,541,572,572,855,855,1610613623,855,855,855,571,571,541,573,574,574,574,574,574,574,574,574,574,574,574,665,542,541,665,541,571,664,663,665,571,663,665,665,571,572,634,665,663,571,634,634,572,663,542,634,571,542,542,634,541,665,542,541,542,572,664,664,664,634,665,542,572,665,572,663,572,571,634,664,634,541,665,541,664,663,541,634,663,665,665,572,664,663,664,571,542,572,542,634,571,
574,574,574,574,545,665,572,572,855,855,1610613624,2684355448,855,855,541,572,634,571,573,574,574,574,574,574,574,574,574,574,574,574,664,571,571,634,541,634,541,571,665,571,634,571,542,541,634,571,541,665,542,664,571,542,542,663,572,542,572,664,572,572,664,663,542,665,572,541,542,634,634,541,542,665,572,665,541,542,572,663,572,571,665,634,541,572,542,665,542,541,665,665,634,634,572,634,634,572,663,541,541,542,
574,574,575,605,634,572,572,855,855,855,1610613623,855,855,541,634,542,663,635,574,574,574,574,574,574,574,574,574,574,574,574,542,541,663,634,542,634,665,634,664,571,664,542,541,572,665,664,634,663,664,541,572,542,572,571,665,663,542,571,571,634,541,571,572,541,665,664,663,634,571,541,541,541,541,665,665,634,663,572,634,542,572,634,572,663,571,663,664,664,572,571,665,541,665,665,634,664,664,664,663,634,
574,574,545,664,634,572,855,855,1610613624,887,2684355448,855,634,541,663,542,572,573,574,574,574,574,574,574,574,574,574,574,574,574,571,634,572,634,665,634,542,663,663,542,664,571,571,542,663,541,571,542,634,542,571,664,663,665,572,542,542,663,634,634,665,664,634,572,572,663,634,542,665,542,665,665,665,664,634,663,542,541,663,572,634,572,665,664,571,542,571,665,634,542,664,572,663,542,663,663,541,664,541,571,
574,575,542,572,634,855,855,855,1610613623,855,855,855,541,663,664,665,663,573,574,574,574,574,574,574,574,574,574,574,574,574,664,634,571,664,542,634,664,571,541,572,571,665,664,541,572,541,542,664,542,663,541,572,542,541,663,571,663,663,663,572,541,572,664,541,664,664,571,663,664,664,571,634,572,541,634,663,541,634,541,665,542,572,542,571,571,542,634,542,571,665,663,665,634,541,542,634,542,571,663,665,
574,545,664,663,855,855,1610613624,887,2684355448,855,855,542,572,663,572,663,663,573,574,574,574,574,574,574,574,574,574,574,574,574,663,572,663,665,665,541,663,634,571,663,634,542,664,542,571,664,571,542,665,541,571,634,541,665,542,541,634,541,542,571,664,665,541,572,663,663,541,571,572,634,541,571,664,572,571,541,634,542,663,572,634,542,663,665,542,542,634,665,571,572,665,542,634,665,664,664,572,665,665,663,
545,665,542,855,855,855,1610613623,855,855,855,663,663,541,571,634,572,542,573,574,574,574,574,574,574,574,574,574,574,574,574,572,664,542,665,542,541,571,664,541,665,541,572,571,665,571,542,572,541,541,664,665,663,663,663,663,571,571,634,665,663,571,572,665,664,663,572,665,571,571,571,663,634,541,664,541,542,541,541,572,634,634,571,542,664,571,665,541,634,634,542,542,663,665,664,664,634,572,664,542,572,
542,571,571,855,855,1610613624,2684355448,855,855,542,542,541,542,571,634,665,544,573,574,574,574,574,574,574,574,574,574,574,574,574,572,664,634,541,664,571,665,634,665,663,571,663,665,664,571,572,572,665,542,542,634,665,663,664,634,572,634,572,665,541,663,634,572,571,663,664,541,665,571,634,634,571,664,571,664,664,541,664,634,571,634,541,664,572,634,663,664,571,634,541,665,663,572,571,542,541,571,542,542,634,
665,572,855,855,1610613624,2684355448,855,855,855,571,663,572,572,541,544,635,574,574,574,574,574,574,574,574,574,574,574,574,574,574,664,665,663,665,541,541,542,571,634,663,572,634,665,665,665,664,571,664,665,571,571,634,663,663,571,542,542,572,634,541,542,665,541,634,572,542,572,571,665,541,663,664,572,634,664,571,541,572,663,542,572,634,634,572,664,634,542,665,541,663,571,663,663,541,665,542,664,571,634,665,
634,855,855,886,3221226358,855,855,855,571,664,663,572,544,635,574,574,574,574,574,574,574,574,574,574,574,574,574,574,574,574,634,541,634,541,572,664,634,634,664,664,542,634,664,663,572,663,542,542,572,634,664,664,663,663,664,664,634,571,571,571,571,634,663,634,541,634,665,663,663,541,664,663,541,634,541,541,663,571,664,663,571,542,571,542,572,542,572,634,634,571,572,664,663,664,663,541,664,665,572,663,
855,886,887,1073742712,855,855,665,571,572,544,544,635,574,574,574,574,574,574,574,574,574,574,574,574,574,574,574,574,574,574,664,634,572,572,663,665,664,541,663,663,571,571,571,663,664,664,571,663,541,571,664,571,663,542,664,634,572,542,663,571,541,665,663,541,665,541,664,664,664,634,664,663,571,663,664,665,572,572,572,663,665,665,634,664,634,665,663,542,634,663,541,665,665,542,664,665,663,541,542,664,
855,2684355447,855,855,855,663,665,665,635,574,574,574,574,574,574,574,574,574,574,574,574,574,574,574,574,574,574,574,574,574,571,634,541,572,571,664,664,572,571,542,541,634,664,541,665,665,665,542,542,634,571,572,542,542,572,663,542,572,665,571,542,572,572,571,665,665,664,663,665,572,663,541,572,634,665,571,572,663,571,634,542,634,541,663,541,663,541,541,571,541,541,663,571,572,663,634,634,541,571,664,
887,2684355448,855,855,571,572,663,635,574,574,574,574,574,574,574,574,574,574,574,574,574,574,574,574,574,574,574,574,574,574,571,634,541,663,572,634,542,542,541,634,663,663,634,663,664,663,572,664,542,571,663,572,572,663,663,572,664,572,571,572,572,634,664,634,634,664,663,541,664,634,663,571,572,665,665,542,541,571,664,634,663,572,664,542,542,571,572,665,663,542,634,664,663,541,663,542,665,664,541,541,
855,855,855,665,665,542,663,572,542,663,541,665,571,541,541,542,571,571,663,664,572,541,571,634,571,571,574,574,574,663,572,663,634,572,634,571,571,665,542,664,571,634,634,542,541,665,663,541,541,665,663,664,542,663,572,663,665,665,571,634,541,542,572,665,572,663,542,663,664,572,541,663,634,542,571,664,663,571,664,542,572,572,634,663,571,665,663,634,665,541,665,541,663,542,572,634,663,634,541,665,
855,855,572,542,542,665,664,571,634,571,541,663,572,572,571,664,542,572,663,665,665,571,634,664,541,665,571,663,572,663,664,541,572,634,634,664,664,634,634,572,664,664,572,571,572,634,541,541,665,572,665,665,664,542,542,634,541,542,634,541,665,634,663,571,634,664,664,541,542,634,665,542,634,542,571,572,664,542,571,664,541,664,541,572,663,572,572,571,542,572,663,571,663,664,542,663,572,572,571,665,
572,542,664,664,663,663,571,664,663,663,663,665,664,571,571,571,542,572,665,541,572,572,541,542,542,542,663,572,664,634,542,541,571,541,663,663,665,665,664,571,665,541,665,665,542,571,542,571,634,541,541,572,634,665,572,665,665,542,542,663,634,541,572,663,541,634,634,665,663,571,571,664,664,663,663,542,541,541,572,664,542,664,634,664,665,663,664,663,634,664,541,542,664,572,572,571,542,665,663,542,
541,542,571,542,572,664,664,542,634,541,572,542,664,634,572,572,663,571,571,572,634,542,634,634,571,541,571,541,541,664,663,634,542,663,541,634,572,634,634,663,665,571,541,663,572,572,571,663,664,542,665,664,541,665,572,665,664,571,664,571,542,571,542,663,634,665,634,541,665,665,665,634,572,663,542,542,572,541,572,571,542,665,665,664,571,664,542,571,663,572,572,572,663,664,663,634,541,571,663,571,
664,571,571,665,541,665,572,663,663,663,542,541,665,571,541,664,541,571,634,572,541,572,663,664,665,571,665,664,663,572,571,665,571,572,571,541,542,664,541,663,542,634,541,542,634,634,664,572,664,542,664,542,571,665,542,541,541,571,665,634,664,663,541,665,663,571,571,572,663,664,663,542,663,541,664,634,663,572,664,664,665,664,664,541,634,572,571,572,542,571,572,663,542,572,664,665,665,572,571,663,
541,572,572,634,571,663,663,664,571,664,572,541,663,542,664,571,665,571,664,665,541,572,572,542,572,663,663,634,663,571,541,634,541,542,542,664,572,663,634,542,634,665,571,664,571,663,542,572,634,664,634,634,663,634,572,542,665,572,571,634,541,634,572,664,634,665,665,541,572,572,663,634,664,572,663,541,663,571,541,542,665,571,634,663,665,571,571,572,664,541,664,634,541,665,541,572,664,663,665,663,
542,541,665,572,541,572,571,663,664,664,663,664,665,541,664,541,664,665,634,664,571,665,571,572,663,664,634,542,571,665,571,541,664,542,542,634,542,634,542,542,634,542,634,572,571,665,541,665,542,572,663,541,665,663,571,664,664,571,634,571,542,542,571,541,664,541,634,542,665,571,542,663,634,572,542,571,571,664,542,665,665,665,571,665,634,572,634,665,663,541,541,541,541,663,571,663,663,571,664,634,
665,663,663,572,664,541,572,572,665,634,572,634,542,665,541,664,542,663,571,664,664,634,571,665,571,541,663,665,542,541,665,634,541,571,571,541,571,572,541,541,664,665,634,664,572,664,663,664,541,665,542,663,541,663,663,542,665,664,572,541,542,665,571,664,542,571,542,571,541,542,542,542,663,664,663,664,664,665,571,665,571,634,542,571,572,663,571,571,542,541,663,572,571,541,634,634,571,634,634,663,
634,665,664,634,634,665,572,541,664,634,572,542,572,665,663,572,541,664,663,663,665,541,663,571,665,663,541,571,663,664,572,665,571,663,665,542,664,542,664,665,541,634,665,572,541,664,571,572,663,572,542,634,542,572,572,665,542,663,663,541,663,571,664,572,542,664,571,634,634,541,663,634,542,665,663,541,634,634,664,542,634,571,572,665,634,665,572,634,665,571,541,572,541,634,571,664,664,571,665,663,
634,663,665,542,665,572,663,664,572,542,541,665,541,572,541,665,572,571,571,664,542,664,634,541,572,634,541,542,634,542,664,542,572,663,664,664,541,542,665,571,571,542,664,665,663,634,572,572,572,571,571,665,634,541,541,571,541,541,665,571,572,542,572,663,663,664,571,664,572,572,664,541,571,664,541,572,572,572,541,541,542,665,664,663,541,634,572,634,542,664,664,542,571,663,541,663,572,664,663,634,
571,572,664,663,541,542,541,541,541,663,664,571,663,542,664,664,571,664,542,542,571,541,571,571,665,664,665,664,663,541,663,571,664,541,664,665,663,663,634,542,571,664,572,634,663,541,634,634,571,542,665,542,663,571,541,571,542,541,541,665,571,665,572,634,634,665,572,665,664,664,572,663,634,541,663,664,572,572,665,542,571,542,663,634,541,542,634,572,572,572,542,634,571,571,542,665,571,663,664,664,
572,664,572,572,663,663,634,541,571,571,571,664,664,571,665,634,571,664,572,663,663,634,663,571,571,542,572,542,542,541,571,634,572,665,571,665,663,665,571,571,571,572,664,664,665,542,665,634,572,571,571,572,572,663,542,634,665,572,541,541,634,572,634,664,663,572,665,665,665,665,664,634,664,665,541,663,634,541,663,663,572,665,663,541,665,541,572,571,572,572,572,665,542,572,542,663,541,634,572,572,
571,665,571,572,541,634,664,634,542,665,634,542,541,542,541,571,541,572,634,572,634,542,663,571,663,634,665,663,664,541,663,541,571,663,571,663,665,571,572,571,572,664,664,665,541,634,663,664,541,542,572,664,664,663,664,664,665,571,572,634,665,572,664,634,634,541,571,542,571,664,571,541,542,542,542,542,663,664,571,541,571,572,571,542,663,665,663,665,634,664,541,571,634,663,542,572,664,572,541,572,
634,665,541,663,664,664,663,665,541,664,571,663,663,571,542,664,571,663,541,634,634,663,541,664,634,542,542,572,541,542,572,665,572,634,665,541,572,663,572,634,541,571,663,664,634,572,665,572,572,665,663,663,664,572,571,634,634,541,541,572,664,665,541,542,663,634,634,664,664,571,664,542,665,663,541,572,541,541,665,572,572,542,542,663,634,634,541,572,634,542,665,571,634,634,572,634,665,663,665,665,
664,665,572,663,542,665,541,572,541,571,572,542,634,572,665,634,665,664,542,634,663,571,634,541,542,572,664,572,663,664,572,634,665,572,572,572,665,664,571,572,542,634,541,571,665,572,665,634,571,542,571,665,663,634,664,663,571,634,664,572,665,571,542,542,665,664,664,541,542,663,664,542,572,634,634,541,541,663,664,665,664,665,663,542,571,664,663,664,572,571,542,571,571,664,665,665,665,541,542,542,
542,572,542,571,542,663,664,572,572,665,571,541,571,664,542,541,571,542,634,571,571,634,634,571,665,664,663,541,663,634,664,663,665,572,634,572,664,664,542,663,572,634,663,542,634,664,663,634,571,572,634,663,634,572,541,663,634,541,572,634,634,541,663,634,663,542,664,571,572,665,664,541,541,634,542,665,665,665,634,571,663,663,634,542,571,541,541,664,664,664,663,572,634,541,665,542,664,663,665,664,
571,634,665,571,665,542,663,541,663,663,542,572,541,571,664,541,663,664,571,571,542,664,541,663,634,572,665,664,664,634,542,541,572,542,665,663,541,571,634,663,572,634,664,665,664,542,572,542,663,572,541,665,634,663,541,663,665,572,665,663,572,664,634,571,663,541,541,634,541,664,663,663,663,663,572,541,664,634,541,541,663,663,664,571,664,571,634,664,542,634,634,572,542,541,665,664,634,665,664,541,
634,572,634,665,571,572,665,541,541,542,665,634,571,572,542,634,572,665,663,665,665,665,664,664,634,541,542,634,541,634,542,541,572,571,665,634,541,663,634,542,634,665,664,663,571,542,542,664,664,572,542,663,663,541,663,572,664,634,541,571,572,542,664,541,665,542,571,663,634,542,663,572,571,665,571,542,634,571,572,665,663,571,571,541,665,665,634,663,634,542,572,634,572,542,542,665,664,664,664,634,
571,571,542,541,665,541,663,663,665,664,542,664,572,572,663,541,542,634,665,542,542,665,634,542,634,634,571,542,664,542,665,542,663,664,571,571,541,634,663,663,571,663,571,571,664,541,663,541,571,634,541,664,542,572,634,571,572,634,664,664,663,663,571,634,541,572,663,663,572,542,571,663,572,542,541,542,665,634,572,665,665,541,634,663,634,664,572,634,634,665,572,572,542,572,664,634,664,541,665,541,
663,663,572,572,572,663,664,665,541,663,663,664,665,663,664,571,542,664,663,572,665,634,542,572,541,571,665,634,571,665,665,634,664,634,542,634,542,541,542,634,571,541,664,665,541,634,542,634,572,634,541,665,664,634,665,663,542,634,664,541,664,541,571,542,634,634,572,663,542,665,663,663,541,571,634,571,541,541,541,663,634,542,634,663,664,634,664,664,541,571,572,634,542,665,665,571,571,541,542,541,
665,665,664,664,665,663,571,665,663,664,664,542,572,664,665,663,571,665,664,634,663,542,572,542,665,542,571,571,571,634,541,665,664,665,665,571,542,572,541,663,572,572,572,542,541,542,665,663,542,664,634,541,664,571,572,541,571,541,664,541,634,664,663,634,571,571,634,541,634,541,663,572,542,663,571,572,664,571,664,541,542,572,542,664,664,541,634,664,665,663,664,665,634,542,663,634,571,634,571,664,
665,664,541,665,634,665,665,571,542,665,663,634,542,572,541,665,571,665,634,541,663,665,542,541,541,571,541,664,664,665,665,665,571,665,634,664,571,572,572,572,665,634,542,571,542,571,634,665,665,542,634,572,572,664,665,541,664,634,663,572,665,572,572,664,572,572,663,541,634,663,571,542,542,572,634,541,571,572,665,542,663,541,665,665,664,572,571,571,664,664,572,541,542,664,665,664,542,542,663,663,
634,571,542,542,572,664,541,664,541,634,541,542,542,664,571,634,542,663,542,542,541,665,571,663,663,634,571,665,541,542,665,665,542,663,634,664,665,571,542,663,665,571,663,664,571,664,663,571,572,572,541,571,664,634,665,542,634,541,663,541,572,571,634,663,541,572,572,664,634,542,663,665,541,663,541,571,542,541,663,542,663,572,572,634,634,663,664,541,665,542,634,634,541,663,663,541,541,541,663,663,
541,542,634,541,572,571,665,665,634,571,541,571,634,664,542,665,572,663,664,572,664,665,664,663,542,541,571,663,541,663,571,542,572,665,571,664,664,634,542,634,572,572,665,634,663,542,634,663,634,634,664,541,665,634,572,572,664,571,541,634,541,571,663,572,542,664,665,571,634,665,663,663,664,634,572,663,665,542,571,664,663,664,664,572,665,542,665,663,571,542,634,634,571,571,664,664,634,634,542,634,
663,665,665,572,665,664,571,572,572,541,571,634,663,571,541,571,663,634,634,663,664,542,665,541,572,542,664,665,571,665,663,572,572,634,665,663,665,663,571,634,542,665,663,571,665,542,663,634,665,663,572,664,541,541,542,634,663,664,634,571,664,572,665,663,663,664,665,665,541,663,541,665,541,542,634,664,664,665,541,571,663,664,634,665,664,634,664,663,665,665,572,571,571,664,572,542,541,542,571,663,
542,634,663,572,542,634,663,572,541,665,571,571,541,542,571,572,665,664,664,541,541,665,665,571,664,664,541,542,663,663,542,664,542,571,572,663,664,664,542,541,663,664,541,634,571,542,542,634,664,663,664,571,634,571,571,572,572,665,572,541,664,663,572,571,664,665,664,542,634,664,665,572,634,542,571,634,572,664,634,663,542,664,571,634,542,665,572,665,542,571,572,665,572,664,663,634,665,664,542,663,
541,542,664,665,542,541,664,664,664,634,541,542,542,665,663,542,572,541,663,665,571,572,542,634,542,571,571,665,664,634,663,665,541,542,541,571,572,663,541,663,664,634,634,571,634,572,664,572,665,572,634,572,572,571,663,664,663,663,663,542,664,572,664,571,664,571,665,541,571,572,541,571,634,664,572,572,571,541,664,572,663,634,664,663,572,542,634,542,634,571,542,571,572,664,634,664,664,663,634,571,
572,541,634,664,572,634,665,542,665,572,572,665,541,542,665,542,571,572,665,542,572,542,664,541,664,663,663,664,634,663,572,571,542,664,572,634,634,664,665,664,634,572,541,634,664,542,634,663,664,541,665,634,542,571,664,572,663,663,542,572,663,572,572,542,664,634,634,665,665,541,572,571,634,542,665,665,665,664,664,542,541,572,541,665,542,571,663,663,665,665,665,541,572,572,542,663,663,663,571,571,
572,663,542,571,663,571,542,665,665,664,634,571,571,634,541,542,572,572,664,572,664,572,663,634,664,571,665,665,541,663,541,665,665,664,541,664,571,663,571,664,665,664,572,571,542,664,663,542,664,634,542,663,664,541,634,634,664,541,541,541,571,664,664,664,541,541,571,572,542,541,664,665,542,542,634,542,634,634,665,571,541,571,634,541,663,664,571,542,571,541,663,572,665,572,663,665,665,665,571,542,
542,665,664,542,665,664,663,634,664,663,634,572,663,542,542,665,665,663,542,634,541,663,572,571,572,634,664,663,664,664,664,542,571,572,541,634,664,634,665,664,541,634,541,571,634,634,665,665,634,572,542,634,665,663,665,634,542,572,665,541,541,572,542,541,665,664,572,542,665,541,541,664,571,542,572,542,542,665,663,634,663,542,664,634,541,634,571,665,665,572,572,542,665,664,542,541,663,572,542,665,
542,542,663,571,665,634,541,572,572,663,541,542,663,663,663,542,634,541,571,665,634,571,665,571,571,634,664,664,665,665,663,572,571,542,542,541,542,663,663,572,634,541,663,542,664,571,665,542,663,665,542,542,663,542,634,542,663,664,665,665,571,634,663,572,665,572,541,665,665,571,542,665,664,634,663,634,634,665,571,542,665,571,634,572,541,665,665,663,542,664,572,634,571,665,571,634,541,665,572,541,
542,572,571,665,665,663,572,541,572,541,571,541,634,664,541,663,663,663,542,541,542,571,665,571,572,663,541,542,664,634,541,571,665,542,664,541,541,571,663,571,541,571,634,542,572,542,664,572,663,634,634,665,572,665,634,571,665,634,542,634,572,541,634,664,542,634,542,572,542,664,634,663,664,542,542,634,634,663,542,634,665,541,663,572,664,542,665,663,663,541,665,572,663,571,571,542,541,571,541,541,
571,665,541,571,571,572,571,634,542,571,572,664,542,542,665,571,663,665,541,665,665,664,634,665,664,634,664,542,634,663,571,572,663,541,541,572,572,541,664,572,663,542,663,663,664,665,542,542,571,634,663,542,665,542,663,665,663,634,572,663,572,664,663,664,571,572,664,571,571,634,572,572,572,634,572,634,541,664,571,571,634,542,542,664,634,634,663,665,634,571,572,665,571,664,634,664,663,664,542,571,
541,634,665,572,665,571,571,572,541,663,665,571,634,571,634,542,571,634,571,634,542,572,634,572,663,665,665,634,542,634,542,663,634,663,541,665,634,571,664,665,571,665,571,572,634,634,541,664,634,542,572,541,542,542,634,541,572,664,663,665,634,541,665,664,571,541,665,541,663,542,541,542,663,541,663,634,664,542,571,572,665,571,663,634,665,665,541,542,542,665,634,634,663,664,571,665,663,665,572,665,
663,572,634,634,664,542,665,541,572,542,664,541,664,572,541,664,663,572,571,664,572,572,634,663,571,571,541,571,542,665,541,634,663,663,663,665,542,542,571,541,572,664,572,572,665,634,542,542,664,572,541,634,665,634,634,572,664,634,542,571,663,572,542,542,542,665,571,664,663,571,571,664,665,541,665,634,665,541,542,541,665,542,542,571,571,541,572,665,542,542,664,663,572,664,541,542,664,572,541,542,
572,541,572,542,665,541,541,634,542,542,664,572,664,572,571,572,571,663,541,571,541,664,541,542,634,634,664,542,571,541,663,664,663,664,571,634,665,541,664,634,665,571,572,542,664,542,665,664,664,541,541,572,634,571,541,542,664,665,541,572,572,634,663,665,664,634,542,572,663,572,571,665,665,634,542,663,634,571,571,541,542,634,541,634,541,664,665,541,665,571,572,572,572,571,571,663,571,541,542,541,
571,572,572,541,572,663,571,541,571,634,634,542,664,664,663,541,663,665,541,663,664,541,571,663,541,542,572,663,571,665,663,663,663,665,634,542,663,571,664,541,572,572,571,572,571,634,665,664,542,664,664,571,542,634,665,572,664,572,663,664,665,664,634,663,571,664,634,572,571,665,665,634,572,634,541,634,665,664,542,664,571,542,664,541,665,665,665,664,665,572,541,541,571,572,634,571,571,663,663,663,
634,571,572,663,541,572,572,541,663,663,571,663,663,665,572,663,541,664,634,571,541,663,663,541,571,665,663,634,664,541,541,571,542,541,572,634,665,665,663,665,541,664,663,664,572,634,664,572,572,663,572,572,665,572,541,571,634,541,572,634,542,664,664,664,572,541,572,664,541,634,571,542,541,571,571,634,571,542,665,634,634,572,542,665,541,665,664,634,634,663,664,664,542,571,571,664,663,572,665,572,
572,663,542,541,572,634,663,634,665,542,542,665,664,665,663,664,541,664,571,542,665,542,541,665,572,663,571,572,665,542,665,663,572,664,541,664,572,634,663,634,541,665,541,663,634,665,665,634,634,634,571,541,541,572,634,542,571,634,663,634,634,542,663,664,664,571,572,572,571,541,541,541,542,572,664,541,542,541,571,664,664,541,634,663,542,571,634,542,663,572,571,634,541,663,664,572,541,665,542,572,
542,572,665,572,571,664,542,664,571,571,571,572,663,571,571,542,571,542,572,541,664,665,541,571,541,665,665,572,663,663,665,541,664,665,634,542,663,664,665,663,541,665,665,664,541,541,541,571,572,572,634,542,542,665,664,664,634,663,542,664,665,664,542,664,634,571,634,541,572,664,663,663,663,572,663,634,665,663,663,664,541,541,572,572,541,664,571,634,634,663,665,541,664,634,663,571,663,571,634,542,
664,541,665,665,663,572,663,572,664,572,572,571,541,634,571,541,663,541,664,572,572,665,663,542,571,572,572,663,571,541,634,542,663,665,571,665,541,541,542,664,572,663,542,663,542,571,663,571,542,572,663,541,541,634,572,572,571,542,572,663,541,541,634,634,541,541,634,663,571,541,664,542,571,572,541,663,542,542,542,665,572,664,542,571,572,634,541,572,572,634,542,665,571,665,663,572,664,541,664,571,
571,665,542,665,542,542,663,541,665,571,634,541,571,634,665,663,665,634,664,665,634,571,571,572,665,663,542,541,634,541,572,664,665,542,664,572,571,572,542,541,541,634,572,541,665,665,541,541,542,541,541,663,572,664,541,665,542,634,572,571,634,542,664,541,572,571,634,665,663,634,541,572,571,572,572,663,541,663,572,664,541,664,634,541,664,665,571,571,541,542,541,542,663,572,663,542,571,542,665,571,
572,541,665,572,572,571,542,663,572,634,665,634,634,665,572,664,571,572,665,663,542,663,541,541,541,571,663,664,663,663,571,542,665,665,572,572,572,664,541,572,634,572,571,665,634,663,542,665,663,542,572,572,571,664,634,571,572,541,542,572,663,664,571,634,664,571,634,663,542,665,663,571,664,542,665,541,665,542,664,664,664,665,664,542,571,542,665,541,634,663,663,541,571,572,571,572,572,634,571,665,
572,665,572,542,572,572,572,541,542,663,541,541,541,571,541,663,665,541,571,541,665,634,541,634,571,571,664,542,665,571,572,663,571,664,542,663,572,664,571,665,542,663,663,665,572,571,571,571,542,663,572,541,541,665,571,663,634,572,542,663,572,542,541,542,634,663,634,571,634,664,634,665,665,571,634,571,541,542,572,541,572,572,663,572,571,571,571,571,572,542,572,542,541,542,663,665,665,541,572,664,
571,571,663,541,663,571,571,541,572,571,541,634,542,542,664,634,663,541,665,571,665,664,664,664,663,572,634,634,663,665,572,572,572,572,634,542,664,541,542,541,664,665,541,571,541,571,664,664,634,571,571,634,664,664,663,664,664,571,664,634,571,541,542,571,571,542,571,663,542,541,663,664,572,664,634,572,665,634,664,664,663,572,664,542,572,572,541,542,664,542,571,571,665,664,664,571,571,572,634,665,
571,663,663,541,665,634,572,542,663,634,571,664,542,634,541,542,665,572,634,663,665,634,572,542,571,665,541,663,665,634,571,542,663,571,542,665,571,542,542,634,634,634,664,542,571,634,542,571,665,663,634,541,665,664,664,663,542,663,542,634,663,571,571,664,634,664,542,572,663,542,634,665,665,663,664,665,572,665,542,572,542,634,542,665,664,572,634,541,665,541,665,664,663,541,663,541,665,542,572,541,
572,634,541,572,665,664,663,542,664,663,541,542,541,542,572,634,663,665,541,665,664,665,542,541,541,663,572,634,571,663,663,571,542,665,664,542,665,663,634,541,665,665,634,634,541,572,541,572,634,634,572,664,663,571,634,571,571,663,665,572,665,665,541,572,664,571,542,571,665,541,572,634,663,542,663,664,663,665,571,542,664,663,572,663,541,663,663,571,571,542,664,665,663,664,542,571,572,664,542,542,
572,571,571,571,541,542,542,634,665,634,571,542,541,634,634,571,665,663,541,664,571,541,665,542,663,572,571,663,541,571,542,572,665,541,542,664,572,665,663,572,572,542,664,665,542,634,663,665,665,541,663,664,541,542,571,571,665,541,572,665,634,663,542,663,664,665,542,571,665,571,542,663,542,541,665,541,541,571,542,541,664,663,572,571,634,541,571,571,665,663,572,664,542,572,665,572,634,663,665,664,
664,571,571,665,665,542,571,665,663,571,665,541,664,663,542,542,541,541,542,664,663,571,542,665,663,572,541,634,572,634,664,572,634,634,572,664,572,571,572,541,542,665,542,572,572,664,634,663,571,572,663,634,542,572,663,571,542,665,663,634,541,663,664,634,571,664,634,665,571,542,663,664,663,663,634,572,665,663,541,542,572,541,665,541,634,664,572,634,664,572,634,634,664,542,542,541,634,663,663,664,
542,663,634,572,664,665,572,541,634,572,663,542,664,663,541,634,664,572,541,663,571,665,663,665,665,542,663,665,572,572,634,634,571,664,571,634,571,571,665,634,664,634,663,634,664,664,571,634,542,572,664,542,664,665,665,572,664,663,665,663,664,571,571,634,663,663,572,634,571,541,634,665,663,664,665,571,572,542,541,634,664,571,663,571,665,541,664,634,571,665,572,541,571,663,572,572,665,665,572,664,
664,665,541,572,572,665,571,542,571,541,665,571,541,571,665,665,634,541,571,542,571,663,664,664,542,571,663,542,665,541,665,663,663,634,571,571,665,664,541,572,665,634,542,665,634,664,542,664,634,541,665,663,571,572,663,634,665,541,663,665,542,663,663,572,634,664,665,634,541,571,664,664,665,571,572,634,542,542,663,663,663,571,542,664,664,542,572,572,634,665,664,541,664,572,665,542,663,572,664,663,
634,665,541,664,541,571,665,572,664,541,664,634,663,634,665,665,665,665,542,664,572,541,663,665,665,663,663,665,663,542,541,665,571,634,572,665,664,664,541,663,541,663,542,634,664,541,572,572,664,663,634,665,665,572,665,665,665,572,541,572,541,634,634,664,541,542,663,572,572,571,665,541,663,665,571,542,665,663,541,634,663,572,664,664,542,634,663,634,572,634,572,664,542,634,664,571,663,571,634,665,
634,541,571,665,572,572,572,571,663,541,663,665,542,542,571,664,664,664,571,663,541,541,664,542,665,542,634,665,665,571,665,541,542,542,572,665,634,572,665,663,542,541,664,541,571,663,541,665,665,541,572,665,541,541,665,542,571,542,571,664,542,571,664,664,664,665,664,663,634,634,541,663,542,541,664,663,663,664,634,541,664,571,571,541,571,664,572,663,663,542,663,572,571,572,571,665,541,542,571,665,
665,572,663,542,542,634,664,572,634,571,663,634,542,541,571,634,542,542,634,634,571,665,542,665,571,572,665,542,542,572,542,634,634,571,542,542,541,572,665,541,571,664,664,665,634,663,664,663,571,542,572,634,541,571,572,664,634,571,664,663,634,634,663,634,665,663,542,634,663,572,665,663,663,572,634,634,665,663,665,542,664,665,665,572,541,664,541,571,542,634,571,541,572,663,541,664,541,571,634,665,
634,663,572,663,571,571,571,663,571,665,665,665,665,541,634,541,572,541,634,542,572,542,663,541,664,542,665,664,572,541,663,572,542,665,572,572,634,541,664,572,663,541,542,663,542,571,572,663,634,571,665,572,665,571,664,664,663,541,542,571,665,664,571,542,664,541,571,541,665,664,664,634,663,634,541,663,571,665,572,572,571,634,665,541,664,571,542,571,665,571,664,571,572,665,541,542,664,541,634,634,
571,634,542,665,663,571,571,663,665,572,664,572,572,572,665,665,542,542,572,664,572,634,663,571,663,542,571,572,665,572,572,634,664,634,571,572,542,541,571,541,572,634,542,571,571,541,663,634,664,572,572,665,541,664,664,665,665,572,572,541,665,542,634,572,572,634,541,571,571,665,664,571,663,664,634,541,665,572,571,663,664,542,541,634,665,572,634,572,571,664,664,663,542,542,665,663,542,634,571,541,
541,542,665,665,664,572,634,542,634,663,571,663,542,664,665,542,572,664,664,663,541,571,572,541,572,665,541,542,572,663,541,663,664,541,663,665,634,541,665,542,541,634,664,571,663,572,542,572,634,542,634,634,664,541,541,541,542,571,664,665,542,542,571,665,634,541,634,664,541,541,634,634,663,664,664,664,664,572,664,542,663,664,571,664,542,571,634,541,665,541,664,634,542,664,541,665,664,572,541,663,
541,663,665,572,634,634,664,542,542,571,663,571,541,571,571,663,664,572,542,665,572,665,571,542,571,542,542,541,572,665,665,663,572,571,663,634,664,541,541,664,571,664,664,665,572,542,541,665,664,541,572,663,571,572,571,572,665,663,541,541,663,664,634,664,541,665,541,571,571,542,634,664,541,664,664,572,634,541,634,571,571,665,572,634,665,571,663,571,541,663,664,634,572,571,634,665,665,664,572,541,
571,665,572,541,541,572,634,541,634,664,665,634,663,571,634,634,541,634,572,541,571,665,541,572,541,542,665,663,665,541,541,572,665,663,572,663,665,663,664,665,541,634,571,571,634,663,571,541,665,664,542,542,541,541,663,665,571,663,663,572,634,571,542,665,664,571,664,663,571,663,571,571,665,663,571,663,542,571,571,664,571,541,664,572,664,542,665,541,634,665,571,634,664,663,542,571,634,665,541,665,
634,542,571,571,663,571,665,571,571,572,665,664,665,664,634,665,634,634,541,571,664,664,571,541,571,571,542,664,634,571,571,542,663,571,663,571,663,572,542,665,664,542,634,634,664,663,663,663,571,542,664,572,541,634,664,663,665,665,571,634,542,542,634,571,571,634,541,542,664,665,541,664,634,634,634,541,665,664,571,571,665,571,572,571,541,634,571,665,664,634,542,665,542,665,572,664,541,634,572,663,
634,665,571,572,634,665,664,541,541,572,664,634,663,571,572,663,663,634,541,572,663,541,663,542,664,634,542,541,541,571,634,542,664,665,634,665,542,663,542,541,663,664,572,634,542,634,634,572,664,664,542,664,572,572,664,664,634,542,542,664,542,663,634,665,572,572,664,663,664,571,572,634,634,663,663,665,542,572,541,665,541,571,663,542,634,542,664,634,571,664,664,664,665,664,634,541,634,571,541,665,
541,572,664,542,542,665,541,542,571,663,634,542,572,542,663,634,663,634,542,542,634,665,571,664,663,541,663,634,571,542,634,541,663,663,571,663,572,634,665,571,664,541,542,542,663,663,663,634,634,571,664,663,665,663,665,665,571,542,634,542,665,572,541,541,541,542,541,634,541,665,571,665,663,664,542,542,571,571,542,571,542,541,663,542,665,664,541,665,571,664,665,665,572,664,634,664,541,541,571,572,
663,634,663,542,542,541,571,665,541,665,634,634,571,542,663,634,571,663,571,541,541,634,665,571,664,571,664,634,542,572,541,664,572,664,663,541,634,541,634,572,634,634,634,665,541,664,572,542,542,571,571,634,542,664,571,663,665,541,665,634,663,541,572,542,541,634,664,634,665,572,663,663,542,541,665,542,541,665,541,634,663,542,572,663,541,664,542,634,663,541,571,571,541,572,571,634,634,571,663,571,
665,541,571,542,572,664,664,663,541,634,665,542,542,541,664,541,541,541,571,572,665,542,541,663,663,663,572,542,572,665,665,634,663,541,572,664,572,634,664,572,634,663,634,571,541,572,542,541,572,572,572,664,634,571,541,571,663,664,571,571,664,542,664,664,571,542,663,665,541,665,542,663,665,634,541,542,664,542,571,665,572,572,542,665,663,542,665,634,634,541,542,542,572,634,571,663,664,663,572,634,
665,665,664,634,572,663,541,541,665,634,541,665,541,542,663,571,665,634,542,542,542,664,542,663,664,572,664,634,572,664,663,663,571,541,542,664,542,571,663,663,572,572,541,634,542,541,665,541,542,663,664,571,664,572,663,571,542,664,634,571,571,634,663,664,541,571,665,571,572,663,541,541,542,541,542,541,664,663,663,664,542,541,665,541,572,664,664,541,665,663,571,541,542,541,571,572,572,663,634,664,
572,572,542,571,542,634,663,542,634,571,572,572,572,542,665,664,634,664,541,541,542,541,665,663,571,634,572,663,541,541,541,664,664,663,571,541,665,572,572,634,542,571,571,542,571,542,634,634,634,571,541,634,571,634,634,541,541,663,663,541,664,572,541,664,664,571,542,664,541,541,541,663,664,542,663,663,571,663,542,634,571,665,664,664,572,541,634,541,571,572,572,664,572,634,542,572,572,541,664,571,
664,571,542,571,663,663,542,541,665,664,663,634,665,665,634,542,571,663,664,541,634,571,665,664,634,542,542,663,663,664,663,664,541,665,664,571,541,634,571,665,663,665,663,665,542,541,572,664,571,572,665,571,541,572,571,634,542,665,572,542,542,664,542,665,665,571,572,571,541,665,634,542,541,634,571,665,663,541,541,571,664,663,634,542,634,542,541,634,571,571,634,571,571,542,571,634,663,572,634,542,
571,541,634,634,541,541,665,541,572,634,664,571,663,572,571,664,634,571,664,663,542,663,571,572,663,542,571,663,665,663,541,542,665,542,663,634,571,541,541,571,663,571,663,571,541,663,664,572,571,664,663,664,542,572,664,571,664,571,571,663,665,541,542,571,664,541,542,572,663,572,572,634,542,663,664,571,663,572,664,634,571,571,665,541,541,665,572,541,541,665,665,572,664,571,542,542,665,665,571,571,
664,664,663,663,634,571,663,663,665,663,541,572,634,541,634,664,542,664,541,663,571,571,663,664,634,663,572,542,664,542,541,664,542,665,664,541,634,665,572,541,542,663,571,572,571,571,664,665,541,541,572,572,572,634,634,572,572,571,541,572,663,634,542,542,664,571,634,571,541,634,664,665,663,663,634,634,572,572,634,571,664,664,664,663,665,541,663,572,664,665,634,542,664,572,541,572,572,571,664,634,
664,541,541,542,571,664,571,571,663,571,664,663,665,571,665,664,663,571,542,541,664,664,665,572,541,571,572,634,572,663,541,665,665,541,571,663,663,541,541,542,664,665,663,542,665,634,542,634,571,541,664,665,665,665,571,541,663,572,542,541,663,572,572,664,664,664,541,542,634,634,571,571,572,665,665,665,572,664,542,663,572,572,541,664,542,664,665,665,571,541,663,665,665,542,664,571,541,541,665,665,
572,542,664,634,634,542,664,634,542,541,541,663,665,665,541,572,664,663,664,571,663,634,571,542,571,542,665,663,572,542,541,571,665,572,541,541,542,571,572,665,665,634,541,634,542,665,542,663,572,664,663,541,665,571,663,571,542,542,634,572,663,664,572,663,541,634,665,572,664,542,634,664,665,542,664,664,634,572,634,663,542,665,572,572,665,572,541,541,571,634,634,541,571,542,541,663,541,541,663,663,
634,665,572,663,542,634,571,663,572,572,664,634,572,571,572,663,665,663,571,663,663,541,663,664,663,572,663,572,663,664,571,572,572,572,664,542,634,634,634,541,663,663,664,572,663,634,541,572,634,571,665,663,572,571,572,541,571,634,571,572,665,571,665,663,542,571,541,572,663,665,664,572,664,571,541,665,634,541,541,541,665,571,541,664,572,634,541,664,664,663,541,542,634,571,663,542,634,542,572,541,
571,571,541,572,663,663,541,542,541,634,665,663,663,572,665,663,571,541,634,664,541,571,542,664,634,664,634,663,663,665,665,634,542,542,663,663,572,572,634,634,634,571,572,634,541,665,542,665,572,572,541,541,634,665,571,634,541,665,572,541,541,664,663,542,664,664,541,571,572,664,542,663,664,541,664,572,664,665,663,541,665,542,571,634,542,541,571,665,634,634,665,572,542,542,664,664,571,634,664,542,
542,664,541,572,571,634,663,664,634,541,663,664,665,664,542,634,571,664,665,665,663,665,664,572,663,541,634,571,634,571,665,634,572,572,665,541,571,542,541,664,541,571,572,663,634,665,665,664,664,634,572,663,541,663,572,542,571,571,634,542,571,542,664,634,634,634,541,663,572,572,634,664,663,572,541,541,571,634,663,572,664,542,634,634,542,634,665,663,541,542,634,571,541,571,542,572,665,541,541,665,
663,664,634,571,542,572,572,664,665,664,663,542,663,542,664,541,542,571,542,665,634,663,665,572,572,572,664,572,542,541,663,572,572,665,571,664,663,542,542,665,664,571,665,665,664,542,542,571,665,663,542,541,542,634,541,572,542,634,663,634,663,664,542,634,634,634,664,664,664,572,542,665,634,663,541,542,634,665,634,572,542,541,541,664,541,572,571,541,571,541,634,634,541,571,541,663,572,572,665,541,
572,542,572,664,664,571,572,571,663,664,665,664,664,664,572,572,665,634,664,665,541,542,665,634,663,571,571,571,541,542,571,542,663,665,663,663,665,541,572,572,663,541,665,572,663,542,665,541,634,663,664,663,541,663,664,634,541,634,571,541,572,571,541,542,542,665,665,571,634,665,634,663,542,663,571,541,541,542,663,664,665,571,634,634,664,663,541,572,634,663,571,572,542,572,663,664,664,664,634,572,
663,572,665,664,571,571,634,541,541,634,663,542,542,572,665,571,571,663,665,542,541,663,542,572,663,541,663,541,634,572,542,634,663,665,541,665,634,663,572,542,634,634,663,665,572,571,665,663,663,571,542,634,571,665,542,571,542,664,542,542,663,572,664,634,572,663,541,663,571,665,571,572,542,572,663,634,634,665,665,663,572,663,572,634,663,634,571,634,664,634,634,541,664,663,663,572,634,665,541,663,
664,634,665,665,634,634,571,664,664,572,571,663,665,541,634,663,572,663,664,664,542,571,542,663,665,572,665,542,572,634,663,664,542,665,541,663,572,571,541,665,665,541,542,665,541,542,663,634,571,665,664,542,664,541,571,572,664,541,665,665,572,572,665,663,541,541,663,541,665,542,542,634,541,541,663,571,542,571,571,664,663,665,663,665,634,541,542,664,542,634,665,571,542,634,542,664,634,541,542,542,
665,664,542,541,663,664,663,664,663,663,542,571,571,664,665,634,571,541,665,634,541,663,571,572,634,541,663,541,571,542,663,572,664,664,542,665,541,634,634,663,571,634,542,634,634,572,634,664,542,572,571,541,664,572,542,665,664,572,572,541,663,572,541,663,634,571,665,542,663,634,571,663,664,634,665,571,571,541,664,665,664,541,665,542,665,541,664,665,571,663,634,664,572,541,663,665,664,542,664,665,
571,542,541,634,664,571,664,663,665,542,542,571,663,663,542,634,572,664,572,634,542,542,664,634,572,664,542,665,634,541,541,663,665,663,634,665,665,665,541,663,571,665,541,572,542,665,571,572,571,634,664,664,663,572,571,664,665,663,634,571,664,542,663,572,572,664,542,542,664,665,663,572,542,571,634,663,542,572,664,663,571,665,663,665,571,664,542,542,541,634,571,572,634,663,542,665,665,541,572,663,
664,663,572,664,664,664,541,665,572,634,664,634,541,664,571,663,571,664,634,664,542,541,664,542,541,542,665,664,571,663,572,665,541,571,664,663,541,664,542,634,572,663,542,572,571,541,634,665,634,541,664,572,542,542,541,542,663,542,634,665,664,664,571,665,634,664,663,664,572,663,542,664,541,571,572,664,572,664,541,663,634,664,542,572,665,572,541,541,665,541,541,542,663,542,634,572,663,572,542,665
</data>
 </layer>
 <layer id="3" name="Tile Layer 2" width="100" height="100">
  <data encoding="csv">
0,0,0,0,0,0,0,0,0,0,0,0,0,0,0,0,0,0,0,0,0,0,0,0,0,0,0,0,0,0,725,0,0,0,0,0,0,0,0,0,0,0,0,0,0,0,0,0,0,0,0,0,0,0,0,0,0,0,0,0,0,0,0,0,0,0,0,0,0,0,0,0,0,0,0,0,0,0,0,0,0,0,0,0,0,0,0,0,0,0,0,0,0,0,0,0,0,0,0,0,
0,0,0,0,0,0,0,0,0,0,0,0,0,0,0,0,0,0,0,0,0,0,0,0,0,0,0,0,0,0,725,0,0,0,0,0,0,0,0,0,0,0,0,0,0,0,0,0,0,0,0,0,0,0,0,0,0,0,0,0,0,0,0,0,0,0,0,0,0,0,0,0,0,0,0,0,0,0,0,0,0,0,0,0,0,0,0,0,0,0,0,0,0,0,0,0,0,0,0,0,
0,0,0,0,0,0,0,0,0,0,0,0,0,0,0,0,0,0,0,0,0,0,0,0,0,0,0,0,0,0,725,0,0,0,0,0,0,0,0,0,0,0,0,0,0,0,0,0,0,0,0,0,0,0,0,0,0,0,0,0,0,0,0,0,0,0,0,0,0,0,0,0,0,0,0,0,0,0,0,0,0,0,0,0,0,0,0,0,0,0,0,0,0,0,0,0,0,0,0,0,
0,0,0,0,0,0,0,0,0,0,0,0,0,0,0,0,0,0,0,0,0,0,0,0,0,0,0,0,0,0,725,0,0,0,0,0,0,0,0,0,0,0,0,0,0,0,0,0,0,0,0,0,0,0,0,0,0,0,0,0,0,0,0,0,0,0,0,0,0,0,0,0,0,0,0,0,0,0,0,0,0,0,0,0,0,0,0,0,0,0,0,0,0,0,0,0,0,0,0,0,
0,0,0,0,0,0,0,0,0,0,0,0,0,0,0,0,0,0,0,0,0,0,0,0,0,0,0,0,0,0,725,0,0,0,0,0,0,0,0,0,0,0,0,0,0,0,0,0,0,0,0,0,0,0,0,0,0,0,0,0,0,0,0,0,0,0,0,0,0,0,0,0,0,0,0,0,0,0,0,0,0,0,0,0,0,0,0,0,0,0,0,0,0,0,0,0,0,0,0,0,
0,0,0,0,0,405,406,0,0,0,0,0,0,0,0,0,0,0,0,0,0,0,0,0,0,0,0,0,0,0,725,0,0,0,0,0,0,0,0,0,0,0,0,0,0,0,0,0,0,0,0,0,0,0,0,0,0,0,0,0,0,0,0,0,0,0,0,0,0,0,0,0,0,0,0,0,0,0,0,0,0,0,0,0,0,0,0,0,0,0,0,0,0,0,0,0,0,0,0,0,
0,0,0,0,0,435,436,0,0,0,0,0,407,408,409,410,0,0,0,0,0,0,0,0,0,0,0,0,0,0,725,0,0,0,0,0,0,0,0,0,0,0,0,0,0,0,0,0,0,0,0,0,0,0,0,0,0,0,0,0,0,0,0,0,0,0,0,0,0,0,0,0,0,0,0,0,0,0,0,0,0,0,0,0,0,0,0,0,0,0,0,0,0,0,0,0,0,0,0,0,
0,0,0,0,0,0,0,0,0,0,0,0,437,438,439,440,0,0,0,0,0,0,0,0,0,0,0,0,0,0,725,0,0,0,0,0,0,0,0,0,0,0,0,0,0,0,0,0,0,0,0,0,0,754,0,0,0,0,0,0,0,0,0,0,0,0,0,0,0,0,0,0,0,0,0,0,0,0,0,0,0,0,0,0,0,0,0,0,0,0,0,0,0,0,0,0,0,0,0,0,
0,0,0,0,0,0,0,0,274,0,0,0,467,468,469,470,0,0,0,0,0,0,0,0,0,0,0,0,0,0,725,0,0,0,0,0,0,0,0,0,0,0,0,0,0,0,0,0,0,0,0,0,754,0,0,0,0,0,0,0,0,0,0,0,0,0,0,0,0,0,0,0,0,0,0,0,0,0,0,0,0,0,0,0,0,0,0,0,0,0,0,0,0,0,0,0,0,0,0,0,
0,0,0,0,0,0,0,0,0,0,0,0,497,498,499,500,0,0,0,0,0,0,0,0,0,0,0,0,0,0,725,0,0,0,0,0,0,0,0,0,0,0,0,0,0,0,0,0,0,0,0,0,754,0,0,0,0,0,0,0,0,0,0,0,0,0,0,0,0,0,0,0,0,0,0,0,0,0,0,0,0,0,0,0,0,0,0,0,0,0,0,0,0,0,0,0,0,0,0,0,
0,0,0,0,0,711,742,0,0,0,0,333,527,528,529,530,0,0,0,0,0,0,0,0,0,0,0,0,0,0,725,0,0,0,0,0,0,0,0,0,0,0,0,0,0,0,0,0,0,0,754,754,0,0,0,0,0,0,0,0,0,0,0,0,0,0,0,0,0,0,0,0,0,0,0,0,0,0,0,0,0,0,0,0,0,0,0,0,0,693,694,695,0,0,0,0,0,0,0,0,
0,0,0,0,0,714,772,0,0,0,0,0,557,558,559,560,0,0,0,0,0,0,0,0,0,0,0,0,0,0,725,0,0,0,0,0,693,694,695,0,0,0,0,0,0,0,0,0,0,754,754,0,0,0,0,0,0,0,0,0,0,754,754,754,754,754,754,754,754,754,754,754,754,754,754,754,754,754,754,754,754,0,0,0,0,0,0,0,693,694,695,725,0,0,0,0,0,0,0,0,
0,0,0,0,0,714,0,0,0,0,0,0,587,588,589,590,0,0,0,0,0,0,0,0,0,0,0,0,0,0,725,0,0,0,0,0,723,724,725,0,0,0,0,0,0,0,0,0,0,754,0,0,0,0,0,0,0,0,0,0,0,0,0,0,0,0,0,0,0,0,0,0,0,0,0,0,0,0,0,0,0,0,0,0,0,0,0,0,693,694,695,755,0,0,0,0,0,0,0,0,
0,0,0,0,0,0,0,0,0,0,0,0,0,0,0,0,0,0,0,0,0,0,0,0,0,0,0,0,0,0,725,0,0,0,0,0,753,754,755,0,0,0,0,0,0,0,0,0,0,754,0,0,0,0,0,0,0,0,0,0,0,0,0,0,0,0,0,0,0,0,0,0,0,0,0,0,0,0,0,0,0,0,0,0,0,0,0,0,723,724,725,0,0,0,0,0,0,0,0,0,
0,0,0,0,0,0,0,0,0,0,230,0,0,0,0,0,0,0,0,0,0,0,0,0,0,0,0,0,0,0,725,0,0,0,0,0,0,0,0,0,0,0,0,0,0,0,0,0,754,0,0,0,0,0,0,0,0,0,0,0,0,0,0,0,0,0,0,0,0,0,0,0,0,0,0,0,0,0,0,0,0,0,0,0,0,0,0,0,753,754,755,0,0,0,0,0,0,0,0,0,
0,0,0,0,0,0,0,0,0,0,260,0,0,0,0,0,0,0,0,0,0,0,0,0,0,0,0,0,0,0,725,0,0,0,0,0,0,0,0,0,0,0,0,0,0,0,0,0,754,0,0,0,0,0,0,0,0,0,0,0,0,0,0,0,0,0,0,0,0,0,0,0,0,0,0,0,0,0,0,0,0,0,0,0,0,0,0,0,0,0,0,0,0,0,0,0,0,0,0,0,
0,0,0,0,0,0,0,0,0,0,0,0,0,0,0,0,0,0,0,0,0,0,0,0,0,0,0,0,0,0,725,0,0,0,0,0,0,0,0,0,0,0,0,0,0,0,0,754,0,0,0,0,0,0,0,0,0,0,0,0,0,0,0,0,0,0,0,0,0,407,408,409,410,0,0,0,0,0,0,0,0,0,0,0,0,0,0,0,0,0,0,0,0,0,0,0,0,0,0,0,
0,0,0,0,0,0,0,0,0,0,0,0,0,0,0,0,0,0,0,0,0,0,0,0,0,0,0,0,0,0,725,0,0,0,0,0,0,0,0,0,0,0,0,0,0,0,0,754,0,0,0,0,0,0,0,0,0,0,0,0,0,0,0,0,0,0,0,0,0,437,438,439,440,0,0,0,0,0,0,0,0,0,0,0,0,0,0,0,0,0,0,0,0,0,0,0,0,0,0,0,
0,0,0,0,0,0,0,0,0,0,0,0,0,0,0,0,0,0,0,0,0,0,0,0,0,0,0,0,0,0,725,0,0,0,0,0,0,0,0,0,0,0,0,0,0,0,0,754,0,0,0,0,0,0,0,0,0,0,0,0,0,0,0,0,0,0,0,0,466,467,468,469,470,0,0,0,0,0,0,0,0,0,0,0,0,0,0,0,0,0,0,0,0,0,0,0,0,0,0,0,
0,0,0,754,754,754,754,754,754,754,754,754,754,754,754,754,754,754,754,754,754,754,754,754,754,754,754,754,754,754,755,0,0,0,0,0,0,0,0,0,0,0,0,0,0,0,754,0,0,0,0,0,0,0,0,0,0,0,0,0,0,0,0,0,0,0,0,0,0,497,498,499,500,0,0,0,0,0,0,0,0,0,0,0,0,0,0,0,0,0,0,0,0,0,0,0,0,0,0,0,
0,0,0,723,0,0,0,0,0,0,0,0,0,0,0,0,0,0,0,0,0,0,0,0,0,0,0,0,0,0,0,0,407,408,409,410,0,0,0,0,0,0,0,0,0,754,754,0,0,0,0,0,0,0,0,0,0,0,0,0,0,0,0,0,0,0,0,0,0,527,528,529,530,0,0,0,0,0,0,0,0,0,0,0,0,0,0,0,0,0,0,0,0,0,0,0,0,0,0,0,
0,0,0,723,0,0,0,0,0,0,0,0,0,0,0,0,0,0,0,0,0,0,0,0,0,0,0,0,0,0,0,0,437,438,439,440,0,0,0,0,0,0,0,0,0,0,0,0,0,0,0,0,0,0,0,0,0,0,0,0,0,0,0,0,0,0,0,0,0,557,558,559,560,0,0,0,0,0,0,0,0,0,0,0,0,0,0,0,0,0,0,0,0,0,0,0,0,0,0,0,
0,0,0,723,0,0,0,0,0,0,0,0,0,0,0,0,0,0,0,0,0,0,0,0,0,0,0,0,0,0,0,466,467,468,469,470,0,0,0,0,0,0,0,0,0,0,0,0,0,0,0,0,0,0,0,0,0,0,0,0,0,754,0,0,0,0,0,0,0,587,588,589,590,0,0,0,0,0,0,0,0,754,0,0,0,0,0,0,0,0,0,0,0,0,0,0,0,0,0,0,
0,0,0,723,0,0,0,0,0,0,0,0,693,694,695,0,0,0,0,0,0,0,0,0,0,0,0,0,0,0,0,0,497,498,499,500,0,0,0,0,0,0,0,0,0,0,0,0,0,0,0,0,0,0,0,0,0,0,0,0,0,754,0,0,0,0,0,0,0,0,0,0,0,0,0,0,0,0,0,0,754,754,0,0,0,0,0,0,0,0,0,0,0,0,0,0,0,0,0,0,
0,0,0,723,0,0,0,0,0,0,0,0,723,724,725,0,0,0,0,0,0,0,0,0,0,0,0,0,0,0,0,0,527,528,529,530,0,0,0,0,0,0,0,0,0,0,0,0,0,0,0,0,0,0,0,0,0,0,0,0,0,754,0,0,0,0,0,0,0,0,0,0,0,0,0,0,0,0,0,0,754,0,0,0,0,0,0,0,0,0,0,0,0,0,0,0,0,0,0,0,
0,0,0,723,0,0,0,0,0,0,0,0,753,754,755,0,0,0,0,0,0,0,0,0,0,0,0,0,0,0,0,0,557,558,559,560,0,0,0,0,0,0,0,0,0,0,0,0,0,0,0,0,0,0,0,0,0,0,0,0,0,754,0,0,0,0,0,0,0,0,0,0,0,0,0,0,0,0,0,0,754,0,0,0,0,0,0,0,0,0,0,0,0,0,0,0,0,0,0,0,
0,0,0,723,0,0,0,0,0,0,0,0,0,0,0,0,0,0,0,0,0,0,0,0,0,0,0,0,0,0,0,0,587,588,589,590,0,0,0,0,0,0,0,0,0,0,0,0,0,0,0,0,0,0,0,0,0,0,0,0,0,754,0,0,0,0,0,0,0,0,0,0,0,0,0,0,0,0,0,0,754,0,0,0,0,0,0,0,0,0,0,0,0,0,0,0,0,0,0,0,
0,0,0,723,0,0,0,0,0,0,0,0,0,0,0,0,0,0,0,0,0,0,0,0,0,0,0,0,0,0,0,0,0,0,0,0,0,0,0,0,0,0,0,0,0,0,0,0,0,0,0,0,0,0,0,0,0,0,0,0,0,754,0,0,0,0,0,0,0,0,0,0,0,0,0,0,0,0,0,754,0,0,0,0,0,0,0,0,0,0,0,0,0,0,0,0,0,0,0,0,
0,0,0,723,0,0,0,0,0,0,0,0,0,0,0,0,0,0,0,0,0,0,0,0,0,0,0,0,0,0,0,0,0,0,0,0,0,0,0,0,0,0,0,0,0,0,0,0,0,0,0,0,0,0,0,0,0,0,0,0,0,754,0,0,0,0,0,0,0,0,0,0,0,0,0,0,0,0,0,754,0,0,0,0,0,0,0,0,0,0,0,0,0,0,0,0,0,0,0,0,
0,0,0,723,0,0,0,0,0,0,0,0,0,0,0,0,0,0,0,0,0,0,0,0,0,0,0,0,0,0,0,0,0,0,0,0,0,0,0,0,0,0,0,0,0,0,0,0,0,0,0,0,0,0,0,0,0,0,0,0,0,754,0,0,0,0,0,0,0,0,0,0,0,0,0,0,0,0,0,754,0,0,0,0,0,0,0,0,0,0,0,0,0,0,0,0,0,0,0,0,
0,0,0,754,754,754,754,754,754,754,754,754,754,754,754,754,754,754,754,754,754,754,754,754,754,754,754,754,754,754,754,754,754,754,754,754,754,754,754,754,754,754,754,754,754,754,754,754,754,754,0,0,0,0,0,0,0,0,0,0,0,754,754,0,0,0,0,0,0,0,0,0,0,0,0,0,0,0,0,754,0,0,0,0,0,0,0,0,0,0,0,0,0,0,0,0,0,0,0,0,
0,0,0,0,0,0,0,0,0,0,0,0,0,0,0,0,0,0,0,0,0,0,0,0,0,0,0,0,0,0,0,0,0,0,0,0,0,0,0,0,0,0,0,0,0,0,0,0,0,0,0,0,0,0,0,0,0,0,0,0,0,0,754,0,0,0,0,0,0,0,0,0,0,0,0,0,0,0,0,0,0,0,0,0,0,0,0,0,0,0,0,0,0,0,0,0,0,0,0,0,
0,0,0,0,0,0,0,0,0,0,0,0,0,0,0,0,0,0,0,0,0,0,0,0,0,0,0,0,0,0,0,0,0,0,0,0,0,0,0,0,0,0,0,0,0,0,0,0,0,0,0,0,0,0,0,0,0,0,0,0,0,0,754,0,0,0,0,0,0,0,0,0,0,0,0,0,0,0,0,0,0,0,0,0,0,0,0,0,0,693,694,695,0,0,0,0,0,0,0,0,
0,0,0,0,0,0,0,0,0,0,0,0,0,0,0,0,0,0,0,0,0,0,0,0,0,0,0,0,0,0,0,0,0,0,0,0,0,0,0,0,0,0,0,0,0,0,0,0,0,0,0,0,0,0,0,0,0,0,0,0,0,0,754,0,0,0,0,0,693,694,695,0,0,0,0,0,0,0,0,0,0,0,0,0,0,0,0,0,0,723,724,725,0,0,0,0,0,0,0,0,
0,0,0,0,0,0,0,0,0,0,0,0,0,0,0,0,407,408,409,410,0,0,0,0,0,0,0,0,0,0,0,0,0,0,0,0,0,0,0,0,0,0,0,0,0,0,0,0,0,0,0,0,0,0,0,0,0,0,0,0,0,0,754,0,0,0,0,0,723,724,725,0,0,0,0,0,0,0,0,0,0,0,0,0,0,0,0,0,0,753,754,755,0,0,0,0,0,0,0,0,
0,0,0,0,0,0,0,0,0,0,0,0,0,0,0,0,437,438,439,440,0,0,0,0,0,0,0,0,0,0,0,0,0,0,0,0,0,0,0,0,0,0,0,0,0,0,0,0,0,0,0,0,0,0,0,0,0,0,0,0,0,0,754,0,0,0,0,0,753,754,755,0,0,0,0,0,0,0,0,0,0,0,0,0,0,0,0,0,0,0,0,0,0,0,0,0,0,0,0,0,
0,0,0,0,0,0,0,0,0,0,0,0,0,0,0,466,467,468,469,470,0,0,0,0,0,0,0,0,0,0,0,0,0,0,0,0,0,0,0,0,0,0,0,0,0,0,0,0,0,0,0,0,0,0,0,0,0,0,0,0,0,0,754,0,0,0,0,0,0,0,0,0,0,0,0,0,0,0,0,0,0,0,0,0,0,0,0,0,0,0,0,0,0,0,0,0,0,0,0,0,
0,0,0,0,0,0,0,754,754,0,0,0,0,0,0,0,497,498,499,500,0,0,0,0,0,0,0,0,0,0,0,0,0,0,0,0,0,0,0,0,0,0,0,0,0,0,0,0,0,0,0,0,0,0,0,0,0,0,0,0,0,0,754,0,0,0,0,0,0,0,0,0,0,0,0,0,0,0,0,0,0,0,0,0,0,0,0,0,0,0,0,0,0,0,0,0,0,0,0,0,
0,0,0,0,0,0,0,754,0,0,0,0,0,0,0,0,527,528,529,530,0,0,0,0,0,0,0,0,0,0,0,0,693,694,695,0,0,0,0,0,0,0,0,754,0,0,0,0,0,0,0,0,0,0,0,0,0,0,0,0,0,0,754,0,0,0,0,0,0,0,0,0,0,0,0,0,754,0,0,0,0,0,0,0,0,0,0,0,0,0,0,0,0,0,0,0,0,0,0,0,
0,0,0,0,0,0,0,754,0,0,0,0,0,0,0,0,557,558,559,560,0,0,0,0,0,0,0,754,0,0,0,0,723,724,725,0,0,0,0,0,0,0,0,754,0,0,0,0,0,0,0,0,0,0,0,0,0,0,0,0,0,0,754,754,0,0,0,0,0,0,0,0,0,0,0,0,0,754,0,0,0,0,0,0,0,0,0,0,0,0,0,0,0,0,0,0,0,0,0,0,
0,0,0,0,0,0,0,754,0,0,0,0,0,0,0,0,587,588,589,590,0,0,0,0,0,0,0,754,0,0,0,0,753,754,755,0,0,0,0,0,0,0,0,754,0,0,0,0,0,0,0,407,408,409,410,0,0,0,0,0,0,0,0,754,0,0,0,0,0,0,0,0,0,0,0,0,0,754,0,0,0,0,0,0,0,0,0,0,0,0,0,0,0,0,0,0,0,0,0,0,
0,0,0,0,0,0,0,754,0,0,0,0,0,0,0,0,0,0,0,0,0,0,0,0,0,0,0,754,0,0,0,0,0,0,0,0,0,0,0,0,0,0,0,754,0,0,0,0,0,0,0,437,438,439,440,0,0,0,0,0,0,0,0,754,0,0,0,0,0,0,0,0,0,0,0,0,0,0,754,0,0,0,0,0,0,0,0,0,0,0,0,0,0,0,0,0,0,0,0,0,
0,0,0,0,0,0,0,754,0,0,0,0,0,0,0,0,0,0,0,0,0,0,0,0,0,0,0,0,754,0,0,0,0,0,0,0,0,0,0,0,0,0,0,754,0,0,0,0,0,0,466,467,468,469,470,0,0,0,0,0,0,0,0,0,0,0,0,0,0,0,0,0,0,0,0,0,0,0,754,0,0,0,0,0,0,0,0,0,0,0,0,0,0,0,0,0,0,0,0,0,
0,0,0,0,0,0,0,754,0,0,0,0,0,0,0,0,0,0,0,0,0,0,0,0,0,0,0,0,754,0,0,0,0,0,0,0,0,0,0,0,0,0,0,754,0,0,0,0,0,0,0,497,498,499,500,0,0,0,0,0,0,0,0,0,0,0,0,0,0,0,0,0,0,0,0,0,0,0,754,0,0,0,0,0,0,0,0,0,0,0,0,0,0,0,0,0,0,0,0,0,
0,0,0,0,0,0,754,0,0,0,0,0,0,0,0,0,0,0,0,0,0,0,0,0,0,0,0,0,754,0,0,0,0,0,0,0,0,0,0,0,0,0,0,754,0,0,0,0,0,0,0,527,528,529,530,0,0,0,0,0,0,0,0,0,0,0,0,0,0,0,0,0,0,0,0,0,0,0,0,754,0,0,0,0,0,0,0,0,0,0,0,0,0,0,0,0,0,0,0,0,
0,0,0,0,0,0,754,0,0,0,0,0,0,0,0,0,754,0,0,0,0,0,0,0,0,0,0,0,754,754,0,0,0,0,0,0,0,0,0,0,0,0,0,0,0,0,0,0,0,0,0,557,558,559,560,0,0,0,0,0,0,0,0,0,0,0,0,0,0,0,0,0,0,0,0,0,0,0,0,754,0,0,0,0,0,0,0,0,0,0,0,0,0,0,0,0,0,0,0,0,
0,0,0,0,0,0,754,0,0,0,0,0,0,0,0,0,754,0,0,0,0,0,0,0,0,0,0,0,0,754,0,0,0,0,0,0,0,0,0,0,0,0,0,0,0,0,0,0,0,0,0,587,588,589,590,0,0,0,0,0,0,0,0,0,0,0,0,0,0,0,0,0,0,0,0,0,0,0,0,0,754,0,0,0,0,0,0,0,0,0,0,0,0,0,0,0,0,0,0,0,
0,0,0,0,0,0,754,0,0,0,0,0,0,0,0,0,754,0,0,0,0,0,0,0,0,0,0,0,0,754,0,0,0,0,0,0,0,0,0,0,0,0,0,0,0,0,0,0,0,0,0,0,0,0,0,0,0,0,0,0,0,0,0,0,0,0,0,0,0,0,0,0,0,0,0,0,0,0,0,0,754,0,0,0,0,0,0,0,0,0,0,0,0,0,0,0,0,0,0,0,
0,0,0,0,0,0,754,0,0,0,0,0,0,0,0,0,754,0,0,0,0,0,0,0,0,0,0,0,0,754,0,0,0,0,0,0,0,0,0,0,0,0,0,0,0,0,0,0,0,0,0,0,0,0,0,0,0,0,0,0,0,0,0,0,0,0,0,0,0,0,0,0,0,0,0,0,0,0,0,0,754,0,0,0,0,0,0,0,0,0,0,0,0,0,0,0,0,0,0,0,
0,0,0,0,0,0,754,0,0,0,0,0,0,0,0,0,754,0,0,0,0,0,0,0,0,0,0,0,0,0,0,0,0,0,0,0,0,0,0,0,0,0,693,694,695,0,0,0,0,0,0,0,0,0,0,0,0,0,0,0,0,0,0,0,0,0,0,0,0,0,0,0,0,0,0,0,0,0,0,0,0,754,0,0,0,0,0,0,0,0,0,0,0,0,0,0,0,0,0,0,
0,0,0,0,0,0,754,0,0,0,0,0,0,0,0,0,754,0,0,0,0,0,0,0,0,0,0,0,0,0,0,0,0,0,0,0,0,0,0,0,0,0,723,724,725,0,0,0,0,0,0,0,0,0,0,0,0,0,0,0,0,0,0,0,0,0,0,0,0,0,0,0,0,0,0,0,0,0,0,0,0,754,0,0,0,0,0,0,0,0,0,0,0,0,0,0,0,0,0,0,
0,0,0,0,0,0,754,0,0,0,0,0,0,0,0,0,754,0,0,0,0,0,0,0,0,0,0,0,0,0,0,0,0,0,0,0,0,0,0,0,0,0,753,754,755,0,0,0,0,0,0,0,0,0,0,0,0,0,0,0,0,0,0,0,0,0,0,0,0,0,0,0,0,0,0,0,0,0,0,0,0,0,754,0,0,0,0,0,0,0,0,0,0,0,0,0,0,0,0,0,
0,0,0,0,0,0,0,0,0,0,0,0,0,0,0,0,0,754,0,0,0,0,0,693,694,695,0,0,0,0,0,0,0,0,0,0,0,0,0,0,0,0,0,0,0,0,0,0,0,0,0,0,0,0,0,0,0,0,0,0,0,0,0,0,0,0,0,0,0,0,407,408,409,410,0,0,0,0,0,0,0,0,754,0,0,0,0,0,0,0,0,0,0,0,0,0,0,0,0,0,
0,0,0,0,0,0,0,0,0,0,0,0,0,0,0,0,0,754,0,0,0,0,0,723,724,725,0,0,0,0,0,0,0,0,0,0,0,0,0,0,0,0,0,0,0,0,0,0,0,0,0,0,0,0,0,0,0,0,0,0,0,0,0,0,0,0,0,0,0,0,437,438,439,440,0,0,0,0,0,0,0,0,0,754,0,0,0,0,0,0,0,0,0,0,0,0,0,0,0,0,
0,0,0,0,0,0,0,0,0,0,0,0,0,0,0,0,0,754,0,0,0,0,0,753,754,755,0,0,0,0,0,0,0,0,0,0,0,0,0,0,0,0,0,0,0,0,0,0,0,0,0,0,0,0,0,0,0,0,0,0,0,0,0,0,0,0,0,0,0,466,467,468,469,470,0,0,0,0,0,0,0,0,0,754,0,0,0,0,0,0,0,0,0,0,0,0,0,0,0,0,
0,0,0,0,0,0,0,0,0,0,0,0,0,0,0,0,0,754,0,0,0,0,0,0,0,0,0,0,0,0,0,0,0,0,0,0,0,754,754,754,754,754,754,754,754,754,754,754,754,754,754,754,754,754,754,754,754,754,754,754,0,0,0,0,0,0,0,0,0,0,497,498,499,500,0,0,0,0,0,0,0,0,0,0,754,0,0,0,0,0,0,0,0,0,0,0,0,0,0,0,
0,0,0,0,0,0,0,0,0,0,0,0,0,0,0,0,0,754,0,0,0,0,0,0,0,0,0,0,0,0,0,0,0,0,0,0,0,0,0,0,0,0,0,0,0,0,0,0,0,0,0,0,0,0,0,0,0,0,0,0,754,754,754,0,0,0,0,0,0,0,527,528,529,530,0,0,0,0,0,0,0,0,0,0,0,0,0,0,0,0,0,0,0,0,0,0,0,0,0,0,
0,0,0,0,0,0,0,0,0,0,0,0,0,0,0,0,0,754,0,0,0,0,0,0,0,0,0,0,0,0,0,0,0,0,0,0,0,0,0,0,0,0,0,0,0,0,0,0,0,0,0,0,0,0,0,0,0,0,0,0,0,0,0,0,0,0,0,0,0,0,557,558,559,560,0,0,0,0,0,0,0,0,0,0,0,0,0,0,0,0,0,0,0,0,0,0,0,0,0,0,
0,0,0,0,0,0,0,0,0,0,0,0,0,0,0,0,0,754,0,0,0,0,0,0,0,0,0,0,0,0,0,754,0,0,0,0,0,0,0,0,0,0,0,0,0,0,0,0,0,0,0,0,0,0,0,0,0,0,0,0,0,0,0,0,0,0,0,0,0,0,587,588,589,590,0,0,0,0,0,0,0,0,0,0,0,0,0,0,0,0,0,0,0,0,0,0,0,0,0,0,
0,0,0,0,0,0,0,0,0,0,0,0,0,0,0,0,0,754,0,0,0,0,0,0,0,0,0,0,0,0,0,754,0,0,0,0,0,0,0,0,0,0,0,0,0,0,0,0,0,0,0,0,0,0,0,0,0,0,0,0,0,0,0,0,0,0,0,0,0,0,0,0,0,0,0,0,0,0,0,0,0,0,0,0,0,0,0,0,0,0,0,0,0,0,0,0,0,0,0,0,
0,0,0,0,0,0,0,0,0,0,0,0,0,0,0,0,0,754,0,0,0,0,0,0,0,0,0,0,0,0,0,754,0,0,0,0,0,0,0,0,0,0,0,0,0,0,0,0,0,0,0,0,0,0,0,0,0,0,0,0,0,0,0,0,0,0,0,0,0,0,0,0,0,0,0,0,0,0,0,0,0,0,0,0,0,0,0,0,0,0,693,694,695,0,0,0,0,0,0,0,
0,0,0,0,0,0,0,0,0,0,0,0,0,0,0,0,0,0,0,0,0,0,0,0,0,0,0,0,0,0,0,754,0,0,0,0,0,0,0,0,0,0,0,0,0,0,0,0,0,0,407,408,409,410,0,0,0,0,0,0,0,0,0,0,0,0,0,0,0,0,0,0,0,0,0,0,0,0,0,0,0,0,0,0,0,0,0,0,0,0,723,724,725,0,0,0,0,0,0,0,
0,0,0,0,0,0,0,493,494,495,496,0,0,0,0,0,0,0,0,0,0,0,0,493,494,495,496,0,0,0,0,754,0,0,0,0,0,0,0,0,0,0,0,0,0,0,0,0,0,0,437,438,439,440,0,0,0,0,0,0,0,0,0,0,0,0,0,0,0,0,0,0,0,0,0,0,0,0,0,0,0,0,0,0,0,0,0,0,0,0,753,754,755,0,0,0,0,0,0,0,
0,0,0,0,0,0,0,523,524,525,526,0,0,0,0,0,0,0,0,0,0,0,0,523,524,525,526,0,0,0,0,0,754,0,0,0,0,0,0,0,0,0,0,0,0,0,0,0,0,466,467,468,469,470,0,0,0,0,0,0,0,0,0,0,0,0,0,0,0,0,0,0,0,0,0,0,0,0,0,0,0,0,0,0,0,0,0,0,0,0,0,0,0,0,0,0,0,0,0,0,
0,0,0,0,0,0,0,553,554,555,556,0,0,0,0,0,0,0,0,0,0,0,0,553,554,555,556,0,0,0,0,0,754,0,0,0,0,0,0,0,0,0,0,0,0,0,0,0,0,0,497,498,499,500,0,0,0,0,0,0,0,0,0,0,0,0,0,0,0,0,0,0,0,0,0,0,0,0,0,0,0,0,0,0,0,0,0,0,0,0,0,0,0,0,0,0,0,0,0,0,
0,0,0,0,0,0,0,583,584,585,586,0,0,0,0,0,0,0,0,0,0,0,0,583,584,585,586,0,0,0,0,0,754,0,0,0,0,0,0,0,0,0,0,0,0,0,0,0,0,0,527,528,529,530,0,0,0,0,0,0,0,0,0,0,0,0,0,0,0,0,0,0,0,0,0,0,0,0,0,0,0,0,0,0,0,0,0,0,0,0,0,0,0,0,0,0,0,0,0,0,
0,0,0,0,0,0,0,613,614,615,616,0,0,0,0,0,0,0,0,0,0,0,0,613,614,615,616,0,0,0,0,0,0,0,0,0,0,0,0,0,0,0,0,0,0,0,0,0,0,0,557,558,559,560,0,0,0,0,0,0,0,0,0,0,0,0,0,0,0,0,0,0,0,0,0,0,0,0,0,0,0,0,0,0,0,0,0,0,0,0,0,0,0,0,0,0,0,0,0,0,
0,0,0,0,0,0,0,0,0,0,0,0,0,0,0,0,0,0,0,0,0,0,0,0,0,0,0,0,0,0,0,0,0,0,0,0,0,0,0,0,0,0,0,0,0,0,0,0,0,0,587,588,589,590,0,0,0,0,0,0,754,754,754,754,754,754,754,754,754,754,754,754,754,754,754,754,754,754,754,754,0,0,0,0,0,0,0,0,0,0,0,0,0,0,0,0,0,0,0,0,
0,0,0,0,0,0,0,0,0,0,0,0,0,0,0,0,0,0,0,0,0,0,0,0,0,0,0,0,0,0,0,0,0,0,0,0,0,0,0,0,0,0,0,0,0,0,0,0,0,0,0,0,0,0,0,0,0,0,0,0,0,0,0,0,0,0,0,0,0,0,0,0,0,0,0,0,0,0,0,0,0,0,0,0,0,0,0,493,494,495,496,0,0,0,0,0,0,0,0,0,
0,0,0,0,0,0,0,0,0,0,0,0,0,0,0,0,0,0,0,0,0,0,0,0,0,0,0,0,0,0,0,0,0,0,0,0,0,0,0,0,0,0,0,0,0,0,0,0,0,0,0,0,0,0,0,0,0,0,0,0,0,0,0,0,0,0,0,0,0,0,0,0,0,0,0,0,0,0,0,0,0,0,0,0,0,0,0,523,524,525,526,0,0,0,0,0,0,0,0,0,
0,0,0,0,0,0,0,0,0,0,0,0,0,0,0,0,0,0,0,0,0,0,0,0,0,0,0,0,0,0,0,0,0,0,0,0,0,0,0,0,0,0,0,0,0,0,0,0,0,754,0,0,0,0,0,0,0,0,0,0,0,0,0,0,0,0,0,0,0,0,0,0,0,0,0,0,0,0,0,0,0,0,0,0,0,0,0,553,554,555,556,0,0,0,0,0,0,0,0,0,
0,0,0,0,0,0,0,0,0,0,0,0,0,0,0,0,0,0,0,0,0,0,0,0,0,0,0,0,0,0,0,0,0,0,0,0,0,0,0,0,0,0,0,0,0,0,0,0,0,0,754,0,0,0,0,0,0,0,0,0,0,0,0,0,0,0,0,0,0,0,0,0,0,0,0,0,0,0,0,0,0,0,0,0,0,0,0,583,584,585,586,0,0,0,0,0,0,0,0,0,
0,0,0,0,0,0,0,0,0,0,0,0,0,0,0,754,754,754,754,0,0,0,0,0,0,0,0,0,0,0,0,0,0,0,0,0,0,0,0,0,0,0,0,0,0,0,0,0,0,0,754,0,0,0,0,0,0,0,0,0,0,0,0,0,0,0,0,0,0,0,0,0,0,0,0,0,0,0,0,0,0,0,0,0,0,0,0,613,614,615,616,0,0,0,0,0,0,0,0,0,
0,0,0,0,0,0,0,0,0,0,0,0,0,0,0,0,0,0,0,754,754,754,754,754,754,754,0,0,0,0,0,0,0,0,0,0,0,0,0,0,0,0,0,0,0,0,0,0,0,0,754,0,0,0,0,0,0,0,0,0,0,0,0,0,0,0,0,0,0,0,0,0,0,0,0,0,0,0,0,0,0,0,0,0,0,0,0,0,0,0,0,0,0,0,0,0,0,0,0,0,
0,0,0,0,0,0,0,0,0,0,0,0,0,0,0,0,0,0,0,0,0,0,0,0,0,0,754,754,754,754,754,754,754,754,754,754,754,754,754,0,0,0,0,0,0,0,0,0,0,0,754,0,0,0,0,0,0,0,0,0,0,0,0,0,0,0,0,0,0,0,0,0,0,0,0,0,0,0,0,0,0,0,0,0,0,0,0,0,0,0,0,0,0,0,0,0,0,0,0,0,
0,0,0,0,0,0,0,0,0,0,0,0,0,0,0,0,0,0,0,0,0,0,0,0,0,0,0,0,0,0,0,0,0,0,0,0,0,0,0,0,0,0,0,0,0,0,0,0,0,0,754,754,0,0,0,0,0,0,0,0,0,0,0,0,0,0,0,0,0,0,0,0,0,0,0,0,0,0,0,0,0,0,0,0,0,0,0,0,0,0,0,0,0,0,0,0,0,0,0,0,
0,0,0,0,0,0,0,0,0,0,0,0,0,0,0,0,0,0,0,0,0,0,0,0,0,0,0,0,0,0,0,0,0,0,0,0,0,0,0,0,0,0,0,0,0,0,0,0,0,0,0,754,0,0,0,0,0,0,0,0,693,694,695,0,0,0,0,0,0,0,0,0,0,0,0,0,0,0,0,0,0,754,0,0,0,0,0,0,0,0,0,0,0,0,0,0,0,0,0,0,
0,0,0,0,0,0,0,0,0,0,0,0,0,0,0,0,0,0,0,0,0,0,0,0,0,0,0,0,0,0,0,0,0,0,0,0,0,0,0,0,0,0,0,0,0,0,0,0,0,0,0,754,0,0,0,0,0,0,0,0,723,724,725,0,0,0,0,0,0,0,0,0,0,0,0,0,0,0,0,0,754,0,0,0,0,0,0,0,0,0,0,0,0,0,0,0,0,0,0,0,
0,0,0,0,0,0,0,0,0,0,0,0,0,754,0,0,0,0,0,0,0,0,0,0,0,0,0,0,0,0,0,0,0,0,0,0,0,0,0,0,0,0,0,0,0,0,0,0,0,0,0,754,0,0,0,0,0,0,0,0,753,754,755,0,0,0,0,0,0,0,0,0,0,0,0,0,0,0,0,0,754,0,0,0,0,0,0,0,0,693,694,695,695,0,0,0,0,0,0,0,
0,0,0,0,0,0,0,0,0,0,0,0,0,754,0,0,0,0,0,0,0,0,0,0,0,0,0,0,0,0,0,0,0,0,0,0,0,0,0,0,0,0,0,0,0,0,0,0,0,0,0,754,0,0,0,0,0,0,0,0,0,0,0,0,0,0,0,0,0,0,0,0,0,0,0,0,0,0,0,0,754,0,0,0,0,0,0,0,0,723,724,725,725,0,0,0,0,0,0,0,
0,0,0,0,0,0,0,0,0,0,0,0,754,0,0,0,0,0,0,0,0,0,0,0,0,0,0,0,0,0,0,0,0,0,0,0,0,0,0,0,0,693,694,695,695,0,0,0,0,0,0,754,0,0,0,0,0,0,0,0,0,0,0,0,0,0,0,0,0,0,0,0,0,0,0,0,0,0,0,0,754,0,0,0,0,0,0,0,0,753,754,755,755,0,0,0,0,0,0,0,
0,0,0,0,0,0,0,0,0,0,0,754,754,0,0,0,0,0,0,0,0,0,0,0,0,0,0,0,0,0,0,0,0,0,0,0,0,0,0,0,0,723,724,725,725,0,0,0,0,0,0,0,0,0,0,0,0,0,0,0,0,0,0,0,0,0,0,0,0,0,0,0,0,0,0,0,0,0,754,754,0,0,0,0,0,0,0,0,0,0,0,0,0,0,0,0,0,0,0,0,
0,0,0,0,0,0,0,0,0,0,0,754,0,0,0,0,0,0,0,0,0,0,0,0,0,0,0,0,0,0,0,0,0,0,0,0,0,0,0,0,0,753,754,755,755,0,0,0,0,0,0,0,0,0,0,0,0,0,0,0,0,0,0,0,0,0,0,0,0,0,0,0,0,0,0,0,754,754,0,0,0,0,0,0,0,0,0,0,0,0,0,0,0,0,0,0,0,0,0,0,
0,0,0,0,0,0,0,0,0,0,754,754,0,0,0,0,0,0,0,0,0,0,0,0,0,0,0,0,0,0,0,0,0,0,0,0,0,0,0,0,0,0,0,0,0,0,0,0,0,0,0,0,0,0,0,0,0,0,0,0,0,0,0,0,0,0,0,0,0,0,0,0,0,0,754,754,0,0,0,0,0,0,0,0,0,0,0,0,0,0,0,0,0,0,0,0,0,0,0,0,
0,0,0,0,0,0,0,0,0,0,754,0,0,0,0,0,0,0,0,0,0,0,0,0,0,0,0,0,0,0,0,0,0,0,0,0,0,0,0,0,0,0,0,0,0,0,0,0,0,0,0,0,0,0,0,0,0,0,0,0,0,0,0,0,0,0,0,0,0,0,0,0,0,0,754,0,0,0,0,0,0,0,0,0,0,0,0,0,0,0,0,0,0,0,0,0,0,0,0,0,
0,0,0,0,0,0,0,0,0,0,754,0,0,0,0,0,0,0,0,0,0,0,0,0,0,0,0,0,0,0,0,0,0,0,0,0,0,0,0,0,0,0,0,0,0,0,0,0,0,0,0,0,0,0,0,0,0,0,0,0,0,0,0,0,0,0,0,0,0,0,0,754,754,754,0,0,0,0,0,0,0,0,0,0,0,0,0,0,0,0,0,0,0,0,0,0,0,0,0,0,
0,0,0,0,0,0,0,0,0,754,0,0,0,0,0,0,0,0,0,0,0,0,0,0,0,0,0,0,0,0,0,0,0,0,0,0,0,0,0,0,0,0,0,0,0,0,0,0,0,0,0,0,0,0,0,0,0,0,0,0,0,0,0,0,0,0,0,0,0,0,754,0,0,0,0,0,0,0,0,0,0,0,0,0,0,0,0,0,0,0,0,0,0,0,0,0,0,0,0,0,
0,0,0,0,0,0,0,0,0,754,0,0,0,0,0,0,0,0,0,0,0,0,0,0,0,0,0,0,0,0,0,0,0,0,0,0,0,0,0,0,0,0,0,0,0,0,0,0,0,0,0,0,0,0,0,0,0,0,0,0,0,0,0,0,0,0,0,0,0,754,0,0,0,0,0,0,0,0,0,0,0,0,0,0,0,0,0,0,0,0,0,0,0,0,0,0,0,0,0,0,
0,0,0,0,0,0,0,0,0,0,0,0,0,0,0,0,0,0,0,0,0,0,0,0,0,0,0,0,0,0,0,0,0,0,0,0,0,0,0,0,0,754,754,754,0,0,0,0,0,0,0,0,0,407,408,409,410,0,0,0,0,0,0,0,0,0,0,0,754,0,0,0,0,0,0,0,0,0,0,0,0,0,0,0,0,0,0,0,0,0,0,754,754,0,0,0,0,0,0,0,
0,0,0,0,0,0,0,0,0,0,0,0,0,0,0,0,0,0,0,0,0,0,0,0,0,754,754,754,754,0,0,0,0,0,0,0,754,754,754,754,754,0,0,0,0,0,0,0,0,0,0,0,0,437,438,439,440,0,0,0,0,0,0,0,0,0,0,754,754,0,0,0,0,0,0,0,0,0,0,0,0,0,0,0,0,0,0,0,0,0,754,754,0,0,0,0,0,0,0,0,
0,0,0,0,0,0,0,0,0,0,0,0,0,0,0,0,0,0,0,0,0,0,0,0,0,0,0,0,0,754,754,754,754,754,754,754,0,0,0,0,0,0,0,0,0,0,0,0,0,0,0,0,466,467,468,469,470,0,0,0,0,0,0,0,0,0,0,0,0,0,0,0,0,0,0,0,0,0,0,0,0,0,0,0,0,0,754,754,754,754,0,0,0,0,0,0,0,0,0,0,
0,0,0,0,0,0,0,0,0,0,0,0,0,0,0,0,0,0,0,0,0,0,0,0,0,0,0,0,0,0,0,0,0,0,0,0,0,0,0,0,0,0,0,0,0,0,0,0,0,0,0,0,0,497,498,499,500,0,0,0,0,0,0,0,0,0,0,0,0,0,0,0,0,0,0,0,0,0,0,0,0,0,754,754,754,754,754,0,0,0,0,0,0,0,0,0,0,0,0,0,
0,0,0,0,0,0,0,0,0,0,0,0,693,694,695,0,0,0,0,0,0,0,0,0,0,0,0,0,0,0,0,0,0,0,0,0,0,0,0,0,0,0,0,0,0,0,0,0,0,0,0,0,0,527,528,529,530,0,0,0,0,0,0,0,0,0,0,0,0,0,0,0,0,0,0,0,0,0,0,0,0,0,0,0,0,0,0,0,0,0,0,0,0,0,0,0,0,0,0,0,
0,0,0,0,0,0,0,0,0,0,0,0,723,724,725,0,0,0,0,0,0,0,0,0,0,0,0,0,0,0,0,0,0,0,0,0,0,0,0,0,0,0,0,0,0,0,0,0,0,0,0,0,0,557,558,559,560,0,0,0,0,0,0,0,0,0,0,0,0,0,693,694,695,0,0,0,0,0,0,0,0,0,0,0,0,0,0,0,0,0,0,0,0,0,0,0,0,0,0,0,
0,0,0,0,0,0,0,0,0,0,0,0,753,754,755,0,0,0,0,0,0,0,0,0,0,0,0,0,0,0,0,0,0,0,0,0,0,0,0,0,0,0,0,0,0,0,0,0,0,0,0,0,0,587,588,589,590,0,0,0,0,0,0,0,0,0,0,0,0,0,723,724,725,0,0,0,0,0,0,0,0,0,0,0,0,0,0,0,0,0,0,0,0,0,0,0,0,0,0,0,
0,0,0,0,0,0,0,0,0,0,0,0,0,0,0,0,0,0,0,0,0,0,0,0,0,0,0,0,0,0,0,0,0,0,0,0,0,0,0,0,0,0,0,0,0,0,0,0,0,0,0,0,0,0,0,0,0,0,0,0,0,0,0,0,0,0,0,0,0,0,753,754,755,0,0,0,0,0,0,0,0,0,0,0,0,0,0,0,0,0,0,0,0,0,0,0,0,0,0,0,
0,0,0,0,0,0,0,0,0,0,0,0,0,0,0,0,0,0,0,0,0,0,0,0,0,0,0,0,0,0,0,0,0,0,0,0,0,0,0,0,0,0,0,0,0,0,0,0,0,0,0,0,0,0,0,0,0,0,0,0,0,0,0,0,0,0,0,0,0,0,0,0,0,0,0,0,0,0,0,0,0,0,0,0,0,0,0,0,0,0,0,0,0,0,0,0,0,0,0,0,
0,0,0,0,0,0,0,0,0,0,0,0,0,0,0,0,0,0,0,0,0,0,0,0,0,0,0,0,0,0,0,0,0,0,0,0,0,0,0,0,0,0,0,0,0,0,0,0,0,0,0,0,0,0,0,0,0,0,0,0,0,0,0,0,0,0,0,0,0,0,0,0,0,0,0,0,0,0,0,0,0,0,0,0,0,0,0,0,0,0,0,0,0,0,0,0,0,0,0,0,
0,0,0,0,0,0,0,0,0,0,0,0,0,0,0,0,0,0,0,0,0,0,0,0,0,0,0,0,0,0,0,0,0,0,0,0,0,0,0,0,0,0,0,0,0,0,0,0,0,0,0,0,0,0,0,0,0,0,0,0,0,0,0,0,0,0,0,0,0,0,0,0,0,0,0,0,0,0,0,0,0,0,0,0,0,0,0,0,0,0,0,0,0,0,0,0,0,0,0,0,
0,0,0,0,0,0,0,0,0,0,0,0,0,0,0,0,0,0,0,0,0,0,0,0,0,0,0,0,0,0,0,0,0,0,0,0,0,0,0,0,0,0,0,0,0,0,0,0,0,0,0,0,0,0,0,0,0,0,0,0,0,0,0,0,0,0,0,0,0,0,0,0,0,0,0,0,0,0,0,0,0,0,0,0,0,0,0,0,0,0,0,0,0,0,0,0,0,0,0,0
</data>
 </layer>
</map>
